X: 5238
T: Broken Lantern, The
R: jig
M: 6/8
K: Dmajor
A2d dcd|Bee ede|fdB AFA|BAF DFG|
A2d ded|Bee ede|fdB ABc|1 dfe dcB:|2 dfe d2 g||
fdA dfa|fga b2a|geg fdf|ecA A2g|
fdA dfa|fga b2a|~g3 ~f3|1 ecA d2g:|2 ecA dcB||

